layouts/icon-pack/spell_lightning_ball.svg

<?xml version="1.0" encoding="UTF-8"?>
<svg width="1200pt" height="1200pt" version="1.1" viewBox="0 0 1200 1200" xmlns="http://www.w3.org/2000/svg">
 <g fill="#fff">
  <path d="m1079.5 415.73c25.055 0 25.102-38.953 0-38.953s-25.102 38.953 0 38.953z"/>
  <path d="m948.59 237.14c11.414 7.2188 27.258 8.8594 40.289 5.4844 10.391-2.6172 19.379-9.1289 25.102-18.188 7.0234-11.848 7.2734-26.523 0.65625-38.602-1.543-2.8086-3.4492-5.4023-5.6719-7.7109-6.7266-10.246-17.555-17.082-29.695-18.75-17.297-2.3438-36.164 5.2031-44.742 21.094-5.3086 9.4609-6.8047 20.59-4.1953 31.121 2.6133 10.531 9.1445 19.668 18.258 25.551z"/>
  <path d="m427.15 110.7c2.6641 2.6562 5.9844 4.5625 9.625 5.5195 3.6367 0.96094 7.4648 0.94141 11.094-0.058594 1.2656-0.36328 2.5-0.84375 3.6797-1.4297 1.0898-0.36328 2.1445-0.83203 3.1406-1.4062l4.1484-3.1641c1.9531-1.7852 3.4062-4.0469 4.2188-6.5625 0.91797-1.5625 1.4062-3.3438 1.4062-5.1562 0.46875-1.7812 0.46875-3.6562 0-5.4375 0-1.8125-0.48828-3.5938-1.4062-5.1562-0.8125-2.5234-2.2656-4.793-4.2188-6.5859-4.457-4.3438-10.418-6.8008-16.641-6.8672-7.2891-0.60938-14.836 4.5-18.375 10.547-1.9141 3.2617-2.918 6.9766-2.9062 10.758-0.13281 2.8477 0.49609 5.6797 1.8281 8.2031 0.85937 2.6055 2.3789 4.9453 4.4062 6.7969zm21.984 4.6875h-0.23437 0.30469z"/>
  <path d="m143.34 225c-0.003906-3.9688-0.58203-7.9141-1.7109-11.719-0.71875-3.3477-1.9688-6.5625-3.7031-9.5156-0.32813-0.5625-0.63281-1.125-0.98438-1.6406-3.4336-5.6133-8.5625-9.9883-14.648-12.492-2.0664-0.91406-4.2188-1.6289-6.4219-2.1328-13.828-4.3359-30.469 1.2891-37.266 14.695-0.97266 2.0117-1.7539 4.1055-2.3438 6.2578-0.77734 1.7227-1.4648 3.4805-2.0625 5.2734-0.27734 0.91016-0.47266 1.8438-0.58594 2.7891-0.73828 3.4922-1.1367 7.0469-1.1953 10.617 0.17578 9.2305 3.8359 18.055 10.242 24.703 6.5391 6.3516 15.285 9.9141 24.398 9.9375 9.6406-0.21094 18.82-4.1719 25.594-11.035 6.7695-6.8633 10.605-16.098 10.688-25.738z"/>
  <path d="m217.66 960.49c-4.1367 1.1953-7.8477 3.5352-10.711 6.75-3.7266 3.8945-5.8594 9.0469-5.9766 14.438 0.042969 5.3984 2.1875 10.57 5.9766 14.414 3.8242 3.8242 9.0078 5.9727 14.414 5.9766l5.4375-0.72656c3.4023-0.94141 6.5039-2.75 9-5.25 3.2227-2.8555 5.5664-6.5703 6.75-10.711 4.5234-14.531-10.359-29.414-24.891-24.891z"/>
  <path d="m175.78 1043.3c-19.312-28.312-61.828-23.695-78.703 4.9219-6.0586 10.492-8.207 22.789-6.0586 34.711 2.1445 11.922 8.4414 22.699 17.777 30.422 5.0156 5.6992 11.695 9.6836 19.098 11.387 7.3984 1.7031 15.148 1.0391 22.152-1.8945 1.1211-0.48047 2.2148-1.0234 3.2812-1.6172 8.1992-2.6641 15.41-7.7305 20.691-14.543 5.2852-6.8125 8.3945-15.055 8.9336-23.66 3.0547-13.668 0.46875-27.988-7.1719-39.727z"/>
  <path d="m1035.7 894.59c-9.6562-0.59766-19.285 1.582-27.742 6.2812-8.4609 4.6953-15.398 11.715-20 20.227-12.164 23.156-3.9609 53.742 19.312 66.516 1.8242 0.96094 3.7031 1.8125 5.625 2.5547 9.4883 5.0586 20.555 6.2734 30.914 3.3984 22.359-6.1641 33.938-27.023 35.32-48.891 1.6875-26.93-16.734-47.953-43.43-50.086z"/>
  <path d="m715.2 655.17c0 11.082-8.9805 20.062-20.062 20.062-11.082 0-20.062-8.9805-20.062-20.062s8.9805-20.062 20.062-20.062c11.082 0 20.062 8.9805 20.062 20.062"/>
  <path d="m1125.4 525.87c-8.3633-18.578-18.965-36.07-31.57-52.078-1.5273-1.9922-4.207-2.7031-6.5234-1.7344-2.3125 0.96484-3.6875 3.3711-3.3438 5.8594 4.8984 37.664-10.219 60.164-22.922 72.07-8.1367 7.4727-18.355 12.297-29.297 13.828-9.6406 1.5312-19.453 1.6562-29.133 0.375-10.441-1.5352-20.211-6.0742-28.121-13.066-7.9062-6.9922-13.609-16.133-16.41-26.309-21.305-76.289-68.953-139.43-88.055-162.59-2.7734-3.375-4.0859-7.7188-3.6445-12.066 0.4375-4.3477 2.5938-8.3398 5.9883-11.09 2.0312-1.6641 4.2227-3.125 6.5391-4.3594 4.8125-2.4883 10.199-3.6445 15.609-3.3438 5.4062 0.30078 10.637 2.0469 15.141 5.0547 21.305 13.852 35.156 38.812 40.359 49.805 1.8438 3.832 5.3398 6.6133 9.4922 7.5469 20.227 4.6875 50.766 1.3125 75-2.8359 2.4297-0.41406 4.1914-2.5391 4.1523-5.0039-0.042969-2.4648-1.875-4.5312-4.3164-4.8633-13.781-1.8516-26.344-4.5469-34.734-6.5391-7.6875-1.832-14.816-5.5078-20.766-10.711-24.797-21.797-51.562-60.938-62.086-77.344-2.5625-3.9023-7.793-5.0117-11.719-2.4844-21.094 13.688-53.906 22.172-73.031 26.227-8.8477 1.9102-18.062-0.77734-24.492-7.1484-37.078-36.914-84.727-53.906-104.32-59.859-9.9688-2.9102-18.645-9.125-24.609-17.625-4.7031-6.9219-7.9414-14.727-9.5156-22.945-1.1094-5.6328 0.14453-11.473 3.4688-16.152 3.3203-4.6797 8.4219-7.7852 14.105-8.5898 5.6836-0.80859 11.449 0.75781 15.941 4.3281 13.742 11.152 26.676 23.27 38.695 36.258 2.7773 2.9766 6.543 4.8438 10.594 5.2422 4.0508 0.40234 8.1094-0.6875 11.414-3.0625 27.07-19.734 35.156-44.531 37.383-61.5 0.28125-2.4336-1.0859-4.7617-3.3516-5.6992-2.2656-0.93359-4.8789-0.25391-6.3984 1.668-5.875 7.9492-13.695 14.254-22.711 18.305-4.793 2.0195-10.066 2.6094-15.184 1.6953-5.1211-0.91016-9.8672-3.2812-13.668-6.8281-16.219-14.812-33.516-41.203-43.617-57.773-1.8789-3.0859-5.1953-5.0156-8.8086-5.125s-7.0352 1.6172-9.0977 4.5859c-25.781 36.727-73.523 82.148-96.094 102.77-7.8828 7.2852-11.547 18.059-9.75 28.641 11.32 69.164 39.844 148.85 52.383 182.16 1.5195 4.0391 4.7266 7.2148 8.7773 8.6953 4.0547 1.4805 8.5508 1.1211 12.316-0.98437l12.867-7.0312c11.738-6.4922 25.648-7.8008 38.391-3.6094 20.461 6.7969 38.578 19.664 53.906 34.266 42.539 40.594 65.625 97.406 66.328 156.23 0.75 55.289-13.852 95.766-25.078 118.57-2.3086 4.6758-6.8555 7.832-12.043 8.3633-5.1836 0.52734-10.277-1.6484-13.48-5.7617-7.3945-9.4453-15.43-18.375-24.047-26.719-3.9883-3.8711-10.105-4.5234-14.82-1.582-4.7188 2.9414-6.8203 8.7188-5.1016 14.004 20.555 63.117 25.945 123.49 27.234 157.22 0.17578 4.5547-2.4609 8.7461-6.6445 10.559-4.1797 1.8125-9.0469 0.86719-12.246-2.3789l-35.508-35.93c-3.1328-3.1445-7.082-5.3477-11.402-6.3672-4.3164-1.0195-8.8359-0.8125-13.043 0.60156-112.22 37.148-178.95 2.6953-204.89-16.406-4.1406-3.0586-7.3555-7.1992-9.2891-11.969-1.9375-4.7656-2.5195-9.9766-1.6797-15.055 1.3438-8.2773 3.5195-16.395 6.4922-24.234 1.1758-3.1523 0.66406-6.6875-1.3555-9.375-2.0195-2.6914-5.2734-4.168-8.6289-3.9141-37.5 2.3438-78.984 16.406-104.62 26.625-3.2305 1.2383-6.8867 0.089844-8.8281-2.7695-1.9453-2.8594-1.668-6.6836 0.67187-9.2305 6.5508-7.1133 13.852-13.504 21.773-19.055 12.074-8.3477 25.465-14.613 39.609-18.539 54.094-15.469 72.656-53.039 78.82-74.766 1.2695-4.5039 4.0703-8.4258 7.9219-11.086 3.8516-2.6641 8.5078-3.8984 13.172-3.4922l40.406 3.6797c1.9141 0.19922 3.6992-0.99609 4.2383-2.8438 0.54297-1.8477-0.31641-3.8164-2.0352-4.6797l-69.164-35.602c-3.3359-1.707-7.2773-1.7695-10.66-0.16016-3.3867 1.6055-5.8281 4.6992-6.6133 8.3633-14.555 63.984-57.633 77.461-79.805 80.062-3.7188 0.44531-7.4688-0.55859-10.469-2.8008-3.0039-2.2422-5.0273-5.5547-5.6562-9.2461-5.8125-33.117-4.5-69.469-2.1328-95.672 2.8945-34.844 14.301-68.445 33.211-97.852 28.125-43.125 63.281-61.945 86.719-70.078 6.9609-2.4375 14.484-2.7891 21.645-1.0039 7.1562 1.7812 13.637 5.6172 18.645 11.035 23.109 25.008 54.586 57.914 80.391 84.68 4.0234 4.1289 10.422 4.793 15.203 1.5742s6.582-9.3945 4.2734-14.676l-159.38-360.68c-1.2773-3.8477-5.1953-6.168-9.1836-5.4375-3.9922 0.73438-6.832 4.293-6.6602 8.3438-0.32812 6.4922-0.86719 12.516-1.5469 18.117-4.1406 35.426-26.742 66.008-59.391 80.367-47.086 20.32-54.398 61.102-54.398 61.102-9.375 32.297-29.203 56.25-44.672 70.969-6.168 5.8516-14.055 9.5664-22.492 10.598-8.4414 1.0273-16.988-0.67969-24.383-4.8789-24.281-13.641-63.609-50.367-92.93-73.078-9.375-7.3125-21.375 5.25-13.594 14.32l86.438 105.47c14.062 16.406 7.6641 42.469-12.891 49.43-4.0273 1.3477-8.1953 2.2383-12.422 2.6484-5.8398 0.5625-11.613 1.6602-17.25 3.2812-75.141 22.078-79.43 98.672-79.43 98.672-3.8203 58.852 25.336 90.68 46.477 107.81 6.9727 5.4648 14.547 10.121 22.57 13.875 47.742 20.555 77.719 76.312 88.57 99.75 2.7422 5.8242 0.99609 12.777-4.1719 16.617-40.57 29.555-49.219 61.406-48.703 84.375 0.125 4.1133 3.1094 7.582 7.1562 8.3164 4.0508 0.73438 8.0625-1.4609 9.625-5.2695 2.1797-5.418 4.6836-10.703 7.5-15.82 8.082-14.531 22.746-24.199 39.285-25.898 16.539-1.6992 32.863 4.7852 43.73 17.367 35.156 40.383 81.141 72.047 105.3 87.281 3.9336 2.4922 6.5234 6.6367 7.0273 11.27 0.50781 4.6289-1.1211 9.2383-4.4258 12.52l-27.047 26.836c-2.625 2.7305-5.7422 4.9414-9.1875 6.5156-16.406 7.1719-36.305-1.3594-49.734-9.375-1.7227-1.0234-3.918-0.76953-5.3594 0.62109-1.4453 1.3867-1.7852 3.5703-0.82812 5.332l16.008 29.32c2.1406 3.9453 6.1602 6.5117 10.641 6.7969l48.328 3.0938c3.9453 0.27734 7.8008-1.2578 10.477-4.1719 17.191-19.309 38.73-34.25 62.836-43.594 12.738-4.8281 26.934-3.9766 39 2.3438 9.2148 4.8125 18.93 8.6094 28.969 11.32 22.816 6.125 47.16 2.2188 66.914-10.734 6.4453-4.2188 12.891-8.0625 19.102-11.508 14.293-7.9219 31.016-10.273 46.938-6.5938 15.922 3.6797 29.918 13.125 39.289 26.516 5.7188 8.1562 10.359 15.492 12.938 19.641 1.5352 2.5508 3.2344 5.0039 5.0859 7.3359 28.125 34.711 63 36.352 85.641 32.531 17.422-2.7656 32.535-13.543 40.828-29.109 14.062-27.047 12.539-60.445 10.219-78.68-0.97266-7.8398-3.5156-15.406-7.4766-22.242-22.473-38.73-41.387-79.422-56.508-121.57-1.168-3.4258 0.36719-7.1875 3.6016-8.8125 3.2305-1.625 7.168-0.61328 9.2188 2.3672l42.07 62.109c2.3906 3.543 6.5547 5.4609 10.805 4.9688 4.2461-0.49609 7.8594-3.3164 9.375-7.3125 18.117-48.469 60.398-68.203 83.578-75.609 11.77-3.7305 22.688-9.7461 32.133-17.695 20.953-17.648 45.492-38.227 58.898-49.477 5.2852-4.3594 6.6602-11.891 3.2578-17.836-7.0078-12.547-11.305-26.422-12.609-40.734-0.69531-6.3516 0.39063-12.77 3.1406-18.539 18.609-38.391 53.133-70.312 68.297-83.344 4.8828-4.1211 8.1953-9.8008 9.375-16.078l5.1797-27.305c1-5.4453 0.33984-11.062-1.8984-16.125zm-906.68 59.766c-0.57812 15.406-1.2031 30.812-1.875 46.219-0.67969 15.938-13.195 24.047-25.594 24.305-14.062 2.6953-30.75-6.1641-40.688-17.086-17.625-19.383-21.844-52.102-13.219-76.336s36.75-44.531 63.281-37.969c8.6836 2.3438 15.469 9.1289 17.812 17.812 3.1641 13.758 0.82031 29.039 0.28125 43.055zm592.73 373.9c8.8086 4.7148 15.633 12.434 19.242 21.75 7.1484 11.062 8.4844 25.781 5.0859 38.32-2.1562 8.2422-6.9688 15.547-13.691 20.785-6.7227 5.2344-14.984 8.1094-23.504 8.1836-3.9922-0.015624-7.9688-0.52734-11.836-1.5234-8.8047-1.457-17.039-5.2969-23.812-11.109-12.258-10.828-18.328-29.297-13.664-45.281 1.1758-4.0547 2.9531-7.9102 5.2734-11.438 4.5469-10.5 12.586-19.172 24.539-22.195 1.0312-0.26563 2.0625-0.47656 3.0938-0.63281 9.7969-2.7969 20.293-1.668 29.273 3.1406zm206.74-316.01c-4.7305 12.457-6.6133 25.816-5.5078 39.094 0.91406 11.391 2.8594 21.938 0.60938 33.305-2.0977 10.676-7.6875 20.348-15.891 27.492-9.0469 10.031-21.469 17.344-33.75 16.664-30.469-1.6641-24.422-39.398-18.07-58.898 9-27.68 21.492-54.117 40.289-76.477 12.234-14.531 38.977 1.0781 32.32 18.82z"/>
 </g>
</svg>

<?xml version="1.0" encoding="UTF-8" standalone="no"?>
<!DOCTYPE svg PUBLIC "-//W3C//DTD SVG 1.1//EN" "http://www.w3.org/Graphics/SVG/1.1/DTD/svg11.dtd">
<svg width="100%" height="100%" viewBox="0 0 512 511" version="1.1" xmlns="http://www.w3.org/2000/svg" xmlns:xlink="http://www.w3.org/1999/xlink" xml:space="preserve" xmlns:serif="http://www.serif.com/" style="fill-rule:evenodd;clip-rule:evenodd;stroke-linejoin:round;stroke-miterlimit:2;">
    <g transform="matrix(1,0,0,1,-72.4182,-74.346)">
        <g transform="matrix(0.485156,0,0,0.485156,37.2841,38.2766)">
            <path d="M1079.5,415.73C1104.56,415.73 1104.6,376.777 1079.5,376.777C1054.4,376.777 1054.4,415.73 1079.5,415.73Z" style="fill:white;fill-rule:nonzero;"/>
            <path d="M948.59,237.14C960.004,244.359 975.848,245.999 988.879,242.624C999.27,240.007 1008.26,233.496 1013.98,224.436C1021,212.588 1021.25,197.913 1014.64,185.834C1013.09,183.026 1011.19,180.432 1008.97,178.123C1002.24,167.877 991.41,161.041 979.27,159.373C961.973,157.03 943.106,164.577 934.528,180.467C929.22,189.928 927.724,201.057 930.333,211.588C932.946,222.119 939.478,231.256 948.591,237.139L948.59,237.14Z" style="fill:white;fill-rule:nonzero;"/>
            <path d="M427.15,110.7C429.814,113.356 433.134,115.263 436.775,116.22C440.412,117.18 444.24,117.161 447.869,116.161C449.135,115.798 450.369,115.317 451.549,114.731C452.639,114.368 453.693,113.899 454.689,113.325L458.838,110.161C460.791,108.376 462.244,106.114 463.056,103.598C463.974,102.036 464.463,100.255 464.463,98.442C464.931,96.661 464.931,94.786 464.463,93.005C464.463,91.192 463.974,89.411 463.056,87.849C462.244,85.325 460.791,83.056 458.838,81.263C454.381,76.919 448.42,74.462 442.197,74.395C434.908,73.786 427.361,78.895 423.822,84.942C421.908,88.204 420.904,91.919 420.915,95.7C420.783,98.548 421.412,101.38 422.744,103.904C423.603,106.509 425.122,108.849 427.15,110.7L427.15,110.7ZM449.204,115.388L448.9,115.388L449.204,115.388Z" style="fill:white;fill-rule:nonzero;"/>
            <path d="M143.34,225C143.336,221.031 142.758,217.086 141.629,213.281C140.91,209.933 139.66,206.719 137.926,203.765C137.598,203.203 137.293,202.64 136.942,202.125C133.508,196.511 128.379,192.136 122.294,189.633C120.227,188.719 118.075,188.004 115.872,187.5C102.044,183.164 85.403,188.789 78.606,202.195C77.633,204.207 76.852,206.301 76.262,208.453C75.485,210.176 74.797,211.933 74.199,213.726C73.922,214.636 73.727,215.57 73.613,216.515C72.875,220.008 72.477,223.562 72.418,227.132C72.594,236.363 76.254,245.187 82.66,251.835C89.199,258.187 97.945,261.749 107.058,261.773C116.699,261.562 125.878,257.601 132.652,250.738C139.422,243.874 143.257,234.64 143.34,225L143.34,225Z" style="fill:white;fill-rule:nonzero;"/>
            <path d="M217.66,960.49C213.523,961.685 209.812,964.025 206.949,967.24C203.222,971.135 201.09,976.287 200.972,981.678C201.015,987.076 203.16,992.248 206.949,996.092C210.773,999.916 215.957,1002.07 221.363,1002.07L226.8,1001.34C230.203,1000.4 233.304,998.592 235.8,996.092C239.023,993.237 241.367,989.522 242.55,985.381C247.074,970.85 232.191,955.967 217.659,960.49L217.66,960.49Z" style="fill:white;fill-rule:nonzero;"/>
            <path d="M175.78,1043.3C156.468,1014.99 113.952,1019.61 97.077,1048.22C91.018,1058.71 88.87,1071.01 91.018,1082.93C93.163,1094.86 99.46,1105.63 108.795,1113.36C113.811,1119.05 120.49,1123.04 127.893,1124.74C135.292,1126.44 143.041,1125.78 150.045,1122.85C151.167,1122.37 152.26,1121.82 153.327,1121.23C161.526,1118.57 168.737,1113.5 174.018,1106.69C179.303,1099.88 182.412,1091.63 182.951,1083.03C186.006,1069.36 183.42,1055.04 175.779,1043.3L175.78,1043.3Z" style="fill:white;fill-rule:nonzero;"/>
            <path d="M1035.7,894.59C1026.04,893.992 1016.42,896.172 1007.96,900.871C999.497,905.567 992.56,912.586 987.958,921.098C975.794,944.254 983.997,974.84 1007.27,987.614C1009.09,988.575 1010.97,989.427 1012.89,990.169C1022.38,995.228 1033.45,996.442 1043.81,993.567C1066.17,987.403 1077.75,966.544 1079.13,944.676C1080.82,917.746 1062.39,896.723 1035.7,894.59L1035.7,894.59Z" style="fill:white;fill-rule:nonzero;"/>
            <path d="M715.2,655.17C715.2,666.252 706.22,675.232 695.138,675.232C684.056,675.232 675.076,666.252 675.076,655.17C675.076,644.088 684.057,635.108 695.138,635.108C706.22,635.108 715.2,644.088 715.2,655.17" style="fill:white;fill-rule:nonzero;"/>
            <path d="M1125.4,525.87C1117.04,507.292 1106.43,489.8 1093.83,473.792C1092.3,471.8 1089.62,471.089 1087.31,472.058C1084.99,473.022 1083.62,475.429 1083.96,477.917C1088.86,515.581 1073.74,538.081 1061.04,549.987C1052.9,557.46 1042.69,562.284 1031.74,563.815C1022.1,565.346 1012.29,565.471 1002.61,564.19C992.17,562.655 982.4,558.116 974.49,551.124C966.584,544.132 960.881,534.991 958.08,524.815C936.775,448.526 889.127,385.385 870.025,362.225C867.251,358.85 865.939,354.506 866.38,350.159C866.818,345.811 868.974,341.819 872.369,339.069C874.4,337.405 876.591,335.944 878.908,334.71C883.72,332.221 889.107,331.065 894.517,331.366C899.923,331.667 905.154,333.413 909.658,336.421C930.963,350.273 944.814,375.233 950.017,386.226C951.86,390.058 955.356,392.839 959.509,393.772C979.736,398.46 1010.27,395.085 1034.51,390.937C1036.94,390.522 1038.7,388.397 1038.66,385.933C1038.62,383.468 1036.79,381.401 1034.35,381.069C1020.56,379.218 1008,376.522 999.611,374.53C991.923,372.698 984.795,369.022 978.845,363.819C954.048,342.022 927.283,302.881 916.759,286.475C914.196,282.573 908.966,281.464 905.04,283.991C883.946,297.679 851.134,306.163 832.009,310.218C823.161,312.128 813.947,309.44 807.517,303.069C770.439,266.155 722.79,249.163 703.197,243.21C693.228,240.3 684.552,234.085 678.588,225.585C673.885,218.664 670.646,210.858 669.072,202.64C667.963,197.008 669.217,191.167 672.541,186.488C675.861,181.809 680.963,178.703 686.646,177.899C692.33,177.09 698.095,178.656 702.587,182.227C716.329,193.379 729.263,205.497 741.282,218.485C744.059,221.461 747.825,223.329 751.876,223.727C755.927,224.129 759.985,223.039 763.29,220.664C790.36,200.93 798.446,176.133 800.673,159.164C800.954,156.731 799.587,154.403 797.321,153.465C795.056,152.532 792.443,153.211 790.923,155.133C785.048,163.082 777.228,169.387 768.212,173.438C763.419,175.458 758.146,176.048 753.028,175.134C747.907,174.223 743.161,171.852 739.36,168.305C723.141,153.493 705.844,127.102 695.743,110.532C693.864,107.447 690.548,105.517 686.934,105.407C683.321,105.298 679.899,107.025 677.837,109.993C652.056,146.72 604.314,192.141 581.743,212.763C573.86,220.049 570.196,230.822 571.993,241.404C583.313,310.568 611.837,390.254 624.376,423.564C625.895,427.603 629.102,430.779 633.153,432.26C637.208,433.74 641.704,433.381 645.469,431.275L658.336,424.244C670.074,417.752 683.984,416.443 696.727,420.635C717.188,427.432 735.305,440.299 750.633,454.901C793.172,495.495 816.258,552.307 816.961,611.131C817.711,666.42 803.109,706.897 791.883,729.701C789.574,734.376 785.028,737.533 779.84,738.064C774.656,738.591 769.563,736.416 766.36,732.302C758.966,722.857 750.93,713.927 742.313,705.583C738.325,701.712 732.208,701.06 727.493,704.001C722.774,706.943 720.673,712.72 722.391,718.005C742.946,781.122 748.336,841.495 749.625,875.225C749.801,879.78 747.165,883.971 742.981,885.784C738.801,887.597 733.934,886.651 730.735,883.405L695.227,847.475C692.094,844.331 688.145,842.128 683.825,841.108C679.509,840.089 674.989,840.296 670.782,841.71C558.562,878.858 491.832,844.405 465.892,825.304C461.751,822.245 458.536,818.104 456.603,813.335C454.665,808.569 454.083,803.358 454.923,798.28C456.267,790.002 458.443,781.885 461.415,774.046C462.591,770.893 462.079,767.358 460.06,764.671C458.04,761.979 454.786,760.503 451.431,760.757C413.931,763.1 372.447,777.163 346.811,787.382C343.58,788.62 339.924,787.471 337.983,784.612C336.038,781.753 336.315,777.928 338.655,775.382C345.205,768.268 352.507,761.878 360.428,756.327C372.502,747.979 385.893,741.714 400.037,737.788C454.131,722.319 472.693,684.749 478.857,663.022C480.126,658.518 482.927,654.596 486.779,651.936C490.63,649.271 495.286,648.037 499.951,648.443L540.357,652.123C542.271,652.322 544.056,651.127 544.595,649.279C545.138,647.432 544.278,645.463 542.56,644.6L473.396,608.998C470.06,607.291 466.118,607.228 462.736,608.837C459.349,610.443 456.908,613.537 456.122,617.201C441.567,681.185 398.489,694.662 376.317,697.263C372.599,697.708 368.849,696.704 365.848,694.462C362.844,692.22 360.821,688.907 360.192,685.216C354.38,652.099 355.692,615.747 358.059,589.544C360.954,554.7 372.36,521.099 391.27,491.692C419.395,448.567 454.551,429.747 477.989,421.614C484.95,419.176 492.473,418.825 499.634,420.61C506.791,422.391 513.271,426.227 518.279,431.645C541.388,456.653 572.865,489.559 598.67,516.325C602.694,520.454 609.092,521.118 613.873,517.899C618.654,514.68 620.455,508.505 618.147,503.223L458.767,142.543C457.489,138.695 453.571,136.375 449.583,137.106C445.591,137.84 442.751,141.399 442.923,145.449C442.595,151.942 442.056,157.965 441.376,163.566C437.235,198.992 414.634,229.574 381.985,243.933C334.899,264.253 327.587,305.035 327.587,305.035C318.212,337.332 298.384,361.285 282.915,376.004C276.747,381.856 268.86,385.571 260.423,386.602C251.982,387.63 243.435,385.923 236.04,381.724C211.759,368.083 172.431,331.357 143.11,308.646C133.735,301.333 121.735,313.896 129.516,322.966L215.954,428.436C230.016,444.842 223.618,470.905 203.063,477.866C199.036,479.213 194.868,480.104 190.641,480.514C184.801,481.076 179.028,482.174 173.391,483.795C98.25,505.873 93.961,582.467 93.961,582.467C90.141,641.319 119.297,673.147 140.438,690.277C147.411,695.742 154.985,700.398 163.008,704.152C210.75,724.707 240.727,780.464 251.578,803.902C254.32,809.726 252.574,816.679 247.406,820.519C206.836,850.074 198.187,881.925 198.703,904.894C198.828,909.007 201.813,912.476 205.859,913.211C209.91,913.945 213.922,911.75 215.484,907.941C217.664,902.523 220.168,897.238 222.984,892.121C231.066,877.59 245.73,867.922 262.269,866.223C278.808,864.524 295.132,871.008 305.999,883.59C341.155,923.973 387.14,955.637 411.299,970.871C415.233,973.363 417.823,977.508 418.327,982.141C418.834,986.77 417.206,991.379 413.901,994.661L386.854,1021.5C384.229,1024.23 381.112,1026.44 377.666,1028.01C361.26,1035.18 341.361,1026.65 327.932,1018.64C326.21,1017.61 324.014,1017.87 322.573,1019.26C321.128,1020.64 320.788,1022.83 321.745,1024.59L337.753,1053.91C339.893,1057.86 343.913,1060.42 348.394,1060.71L396.722,1063.8C400.667,1064.08 404.523,1062.54 407.199,1059.63C424.39,1040.32 445.929,1025.38 470.035,1016.04C482.773,1011.21 496.969,1012.06 509.035,1018.38C518.25,1023.19 527.965,1026.99 538.004,1029.7C560.82,1035.82 585.164,1031.92 604.918,1018.97C611.363,1014.75 617.809,1010.9 624.02,1007.46C638.313,999.535 655.036,997.184 670.958,1000.86C686.88,1004.54 700.876,1013.99 710.247,1027.38C715.966,1035.54 720.606,1042.87 723.185,1047.02C724.72,1049.57 726.419,1052.02 728.271,1054.36C756.396,1089.07 791.271,1090.71 813.912,1086.89C831.334,1084.12 846.447,1073.34 854.74,1057.78C868.802,1030.73 867.279,997.333 864.959,979.098C863.986,971.259 861.443,963.692 857.482,956.856C835.009,918.126 816.095,877.434 800.974,835.286C799.806,831.861 801.341,828.099 804.576,826.474C807.806,824.849 811.744,825.861 813.795,828.841L855.865,890.95C858.255,894.493 862.419,896.411 866.67,895.919C870.916,895.423 874.529,892.603 876.045,888.606C894.162,840.137 936.443,820.403 959.623,812.997C971.393,809.267 982.311,803.251 991.756,795.302C1012.71,777.654 1037.25,757.075 1050.65,745.825C1055.94,741.466 1057.31,733.934 1053.91,727.989C1046.9,715.442 1042.61,701.567 1041.3,687.255C1040.61,680.904 1041.69,674.485 1044.44,668.716C1063.05,630.325 1097.58,598.404 1112.74,585.372C1117.62,581.251 1120.93,575.572 1122.12,569.294L1127.3,541.989C1128.3,536.544 1127.63,530.927 1125.4,525.864L1125.4,525.87ZM218.72,585.636C218.142,601.042 217.517,616.448 216.845,631.855C216.165,647.793 203.65,655.902 191.251,656.16C177.189,658.855 160.501,649.996 150.563,639.074C132.938,619.691 128.719,586.972 137.344,562.738C145.969,538.504 174.094,518.207 200.625,524.769C209.309,527.113 216.094,533.898 218.437,542.581C221.601,556.339 219.257,571.62 218.718,585.636L218.72,585.636ZM811.45,959.536C820.259,964.251 827.083,971.97 830.692,981.286C837.84,992.348 839.176,1007.07 835.778,1019.61C833.622,1027.85 828.809,1035.15 822.087,1040.39C815.364,1045.62 807.103,1048.5 798.583,1048.58C794.591,1048.56 790.614,1048.05 786.747,1047.05C777.942,1045.59 769.708,1041.75 762.935,1035.94C750.677,1025.11 744.607,1006.64 749.271,990.661C750.447,986.607 752.224,982.751 754.544,979.223C759.091,968.723 767.13,960.051 779.083,957.028C780.115,956.763 781.146,956.552 782.177,956.395C791.974,953.598 802.47,954.727 811.45,959.536L811.45,959.536ZM1018.19,643.526C1013.46,655.983 1011.58,669.342 1012.68,682.62C1013.6,694.011 1015.54,704.558 1013.29,715.925C1011.19,726.601 1005.6,736.273 997.401,743.417C988.354,753.448 975.932,760.761 963.651,760.081C933.182,758.417 939.229,720.683 945.581,701.183C954.581,673.503 967.073,647.066 985.87,624.706C998.104,610.175 1024.85,625.784 1018.19,643.526L1018.19,643.526Z" style="fill:white;fill-rule:nonzero;"/>
        </g>
    </g>
</svg>
